X:1
T:[ID 2-4]
T:[ID 2-4]
T:Bezeichnung standardisiert: Menuet [mit Trio] Menuet [mit Trio] 7.
T:Urheber unbekannt Erstbeleg: 1767 (Datum in der schriftlichen Quelle) Datum in der hier transkribierten schriftlichen Quelle: 1776 - 1791
C:Urheber unbekannt
C:Erstbeleg: 1767 (Datum in der schriftlichen Quelle)
C:Datum in der hier transkribierten schriftlichen Quelle: 1776 - 1791
L:1/8
M:3/4
K:A
V:1 treble 
V:1
 e4 a2 | gf e4 |{Bc} .d2 .c2 .B2 | cBAG A2 | e4 a2 | (3gfe f4 | gf g2 f2 | e3 dcd | Tf4 e2 :: %9
 e2 cedc | d2 BdcB | cedcBA | GABG E2 | ecAcec | dBGBdB | cecABG | A6 :| %17
[M:3/4]"^Trio" !fermata!A4 (3cBA | e2 ef e2 | A4 (3cBA | a2 ag a2 | A4 (3cBA | f2 f2 e2 | d2 fedc | %24
 c4 B2 :: BGEGBd | cAEAce | d2 fedc | BAGF E2 | e4 f2 | eagfed | (3cBA TB4 | A6 :| %33

